icons/measure-building-height-top-base-24-f.svg

<svg xmlns="http://www.w3.org/2000/svg" viewBox="0 0 24 24"><path d="M11 23V0H1v23H0v1h24v-1zM3 3h2v2H3zm4 0h2v2H7zM3 8h2v2H3zm4 0h2v2H7zm-4 5h2v2H3zm4 0h2v2H7zm-4 5h2v2H3zm4 0h2v2H7zm6 2V2h-1l1.5-2L15 2h-1v18h1l-1.5 2-1.5-2z"/></svg>

<svg id="icons" xmlns="http://www.w3.org/2000/svg" viewBox="0 0 24 24"><title>measure-building-height-top-base-24-f</title><path d="M11,23V0H1V23H0v1H24V23ZM3,3H5V5H3ZM7,3H9V5H7ZM3,8H5v2H3ZM7,8H9v2H7ZM3,13H5v2H3Zm4,0H9v2H7ZM3,18H5v2H3Zm4,0H9v2H7Zm6,2V2H12l1.5-2L15,2H14V20h1l-1.5,2L12,20Z"/></svg>
